X: 36065
T: Scartaglen, The
R: reel
M: 4/4
K: Dmajor
DFEF D2dB|cAAG EFGE|DFEF D2dB|cAGE ~E2D2|
DFEF D2dB|cAAG EFGE|Addc dfed|cAGE ~E2D:|
e|:f3e fage|fage fdde|f3e fage|fdec Adde|
f3e fage|fage fdde|fage d2cA|1 (3Bcd AG FDDe:|2 (3Bcd AG FGEF||

